X:10184
T:Malgr mes parents je m'amuserai tout l'temps - Rond de St Vincent
C:Perroches: Midi Breton 
M:4/4
L:1/8
K:G
A2AA A2AB|c2BA G2AB|c2d2 cBAB|1 c2B2 A2e2:|2 c2B2 AeAA||
|:AcBA G2AB|c2d2 cBAB|1c2B2AeAA:|2 c2B2 A4 ||
